icons/svg/seamark/topmark_vertical_redwhitered_conepointdown.svg

<?xml version="1.0" encoding="UTF-8" standalone="no"?>
<svg
   xmlns:dc="http://purl.org/dc/elements/1.1/"
   xmlns:cc="http://creativecommons.org/ns#"
   xmlns:rdf="http://www.w3.org/1999/02/22-rdf-syntax-ns#"
   xmlns:svg="http://www.w3.org/2000/svg"
   xmlns="http://www.w3.org/2000/svg"
   xmlns:sodipodi="http://sodipodi.sourceforge.net/DTD/sodipodi-0.dtd"
   xmlns:inkscape="http://www.inkscape.org/namespaces/inkscape"
   width="580"
   height="580"
   id="svg2"
   version="1.1"
   inkscape:version="0.48.4 r9939"
   sodipodi:docname="topmark_vertical_redwhitered_conepointup.svg">
  <defs
     id="defs13">
    <inkscape:path-effect
       effect="gears"
       id="path-effect3774"
       is_visible="true"
       teeth="6"
       phi="-1.2" />
    <inkscape:path-effect
       effect="bend_path"
       id="path-effect3772"
       is_visible="false"
       bendpath="m 95.790098,316.51174 c 144.429032,-206.42506 223.313032,-11.7428 339.548092,0"
       prop_scale="1.19"
       scale_y_rel="false"
       vertical="false"
       bendpath-nodetypes="cc" />
  </defs>
  <sodipodi:namedview
     pagecolor="#ffffff"
     bordercolor="#666666"
     borderopacity="1"
     objecttolerance="10"
     gridtolerance="10"
     guidetolerance="10"
     inkscape:pageopacity="0"
     inkscape:pageshadow="2"
     inkscape:window-width="1920"
     inkscape:window-height="1004"
     id="namedview11"
     showgrid="false"
     inkscape:zoom="0.81379307"
     inkscape:cx="542.6494"
     inkscape:cy="306.01392"
     inkscape:window-x="1680"
     inkscape:window-y="0"
     inkscape:window-maximized="1"
     inkscape:current-layer="svg2"
     inkscape:snap-midpoints="true"
     inkscape:snap-bbox="true"
     inkscape:object-paths="true"
     inkscape:snap-object-midpoints="false"
     inkscape:snap-smooth-nodes="true"
     inkscape:object-nodes="true"
     showguides="true"
     inkscape:guide-bbox="true" />
  <metadata
     id="metadata2975">image/svg+xmlen<rdf:RDF>
  <cc:Work
     rdf:about="">
    <dc:format>image/svg+xml</dc:format>
    <dc:type
       rdf:resource="http://purl.org/dc/dcmitype/StillImage" />
    <dc:title></dc:title>
  </cc:Work>
</rdf:RDF>
</metadata>
  <path
     sodipodi:type="inkscape:offset"
     inkscape:radius="21.212612"
     inkscape:original="M 220.71875 25.75 L 236.3125 52.125 L 236.21875 52.125 L 259.09375 90.8125 L 259.21875 90.8125 L 270.5 109.875 L 270.5 514.5625 L 295.5 514.5625 L 295.5 109.15625 L 306.84375 90.8125 L 330.78125 52.125 L 347.09375 25.75 L 220.71875 25.75 z "
     style="font-size:medium;font-style:normal;font-variant:normal;font-weight:normal;font-stretch:normal;text-indent:0;text-align:start;text-decoration:none;line-height:normal;letter-spacing:normal;word-spacing:normal;text-transform:none;direction:ltr;block-progression:tb;writing-mode:lr-tb;text-anchor:start;baseline-shift:baseline;opacity:0.55199998;color:#000000;fill:#8d8d8d;fill-opacity:1;fill-rule:nonzero;stroke:#a35151;stroke-width:0;stroke-linecap:round;stroke-linejoin:miter;stroke-miterlimit:4;stroke-opacity:1;stroke-dasharray:none;stroke-dashoffset:0;marker:none;visibility:visible;display:inline;overflow:visible;enable-background:accumulate;font-family:Sans;-inkscape-font-specification:Sans"
     id="path3046"
     d="m 220.71875,4.53125 a 21.214733,21.214733 0 0 0 -18.25,32 l 14.46875,24.4375 0.15625,0.28125 a 21.214733,21.214733 0 0 0 0.875,1.65625 l 22.875,38.6875 A 21.214733,21.214733 0 0 0 242,103.375 a 21.214733,21.214733 0 0 0 0.0312,0.0312 l 7.25,12.25 0,398.90625 A 21.214733,21.214733 0 0 0 270.5,535.78125 l 25,0 a 21.214733,21.214733 0 0 0 21.21875,-21.21875 l 0,-399.40625 8.15625,-13.1875 23.9375,-38.6875 16.3125,-26.375 a 21.214733,21.214733 0 0 0 -18.03125,-32.375 l -126.375,0 z" />
  <path
     style="color:#000000;fill:none;stroke:#000000;stroke-width:25;stroke-linecap:butt;stroke-linejoin:miter;stroke-miterlimit:4;stroke-opacity:1;stroke-dasharray:none;stroke-dashoffset:0;marker:none;visibility:visible;display:inline;overflow:visible;enable-background:accumulate"
     d="m 283.08793,514.5625 0,-445.73931"
     id="path3065"
     inkscape:connector-curvature="0" />
  <path
     inkscape:connector-curvature="0"
     style="fill:#e80000;fill-opacity:1;stroke:none"
     d="m 347.20256,25.758313 -126.39738,-0.005 61.77975,104.402747"
     id="path3822-6-6"
     sodipodi:nodetypes="ccc" />
  <path
     style="fill:#fefefe;fill-opacity:1;stroke:none"
     d="m 306.95674,90.807474 23.9375,-38.6875 -94.5625,0 22.875,38.6875 47.75,0 z"
     id="path3822-6-6-5"
     inkscape:connector-curvature="0" />
</svg>

<svg width="580" height="580" viewBox="0 0 580 580" fill="none" xmlns="http://www.w3.org/2000/svg">
<path opacity="0.552" d="M220.719 4.53125C216.979 4.53453 213.306 5.52639 210.073 7.4063C206.84 9.28621 204.162 11.9874 202.309 15.236C200.456 18.4847 199.495 22.1654 199.523 25.9051C199.551 29.6449 200.567 33.3108 202.469 36.5312L216.937 60.9688L217.094 61.25C217.361 61.8147 217.653 62.3673 217.969 62.9062L240.844 101.594C241.199 102.206 241.585 102.801 242 103.375C242.01 103.385 242.021 103.396 242.031 103.406L249.281 115.656V514.562C249.28 517.349 249.829 520.109 250.895 522.683C251.961 525.258 253.524 527.597 255.495 529.568C257.465 531.538 259.804 533.101 262.379 534.167C264.954 535.233 267.713 535.782 270.5 535.781H295.5C298.286 535.782 301.046 535.233 303.621 534.167C306.195 533.101 308.534 531.538 310.505 529.568C312.475 527.597 314.038 525.258 315.104 522.683C316.171 520.109 316.719 517.349 316.719 514.562V115.156L324.875 101.969L348.812 63.2812L365.125 36.9062C367.112 33.6935 368.205 30.0084 368.292 26.2318C368.378 22.4551 367.455 18.7238 365.617 15.4235C363.779 12.1231 361.093 9.37347 357.836 7.45861C354.58 5.54376 350.871 4.53316 347.094 4.53125H220.719Z" fill="#8D8D8D"/>
<path d="M283.088 514.562V68.8223" stroke="black" stroke-width="25"/>
<path d="M347.203 25.7589L220.805 25.7539L282.585 130.157" fill="#E80000"/>
<path d="M306.957 90.8066L330.894 52.1191H236.332L259.207 90.8066H306.957Z" fill="#FEFEFE"/>
</svg>
